src/scalable/places/folder-design.svg

<?xml version="1.0" encoding="UTF-8"?>
<svg xmlns="http://www.w3.org/2000/svg" viewBox="0 0 64 64">
 <defs>
  <linearGradient id="a">
   <stop offset="0"/>
   <stop stop-opacity="0" offset="1"/>
  </linearGradient>
  <linearGradient id="b" x1="31" x2="31" y1="1005.4" y2="1003.4" gradientTransform="matrix(.92593 0 0 1 2.37 -988.4)" gradientUnits="userSpaceOnUse" xlink:href="#a"/>
  <radialGradient id="d" cx="32" cy="1021.9" r="25" gradientTransform="matrix(-1 0 0 -.08 64 137.7)" gradientUnits="userSpaceOnUse" xlink:href="#a"/>
 </defs>
 <path d="M13 8c-1.108 0-2 .892-2 2H9c-.99 0-2 .892-2 2v6c0 1.108 1.01 2 2 2h46c.99 0 2-.892 2-2v-6c0-1.108-1.01-2-2-2H31c0-1.108-.892-2-2-2z" fill="#d0a15c"/>
 <rect x="9" y="12" width="46" height="9" rx="2" ry="2" opacity=".06"/>
 <rect x="10" y="13" width="44" height="7" rx="1" ry="1" fill="#fff"/>
 <rect x="4" y="17" width="56" height="39" rx="2" ry="2" fill="#d0a15c"/>
 <rect x="7" y="15" width="50" height="2" ry="0" fill="url(#b)" opacity=".1"/>
 <rect x="4" y="17" width="56" height="38" rx="2" ry="2" fill="#f4be70"/>
 <rect x="7" y="56" width="50" height="5" ry="0" fill="url(#d)" opacity=".1"/>
 <path d="M6 17c-1.108 0-2 .892-2 2v1c0-1.108.892-2 2-2h52c1.108 0 2 .892 2 2v-1c0-1.108-.892-2-2-2zM13 8c-1.108 0-2 .892-2 2H9c-.99 0-2 .892-2 2v1c0-1.108 1.01-2 2-2h2c0-1.108.892-2 2-2h16c1.108 0 2 .892 2 2h24c.99 0 2 .892 2 2v-1c0-1.108-1.01-2-2-2H31c0-1.108-.892-2-2-2z" fill="#fff" opacity=".15"/>
 <path style="fill:#ffffff" d="M 31.886719 21.970703 C 31.379829 21.970703 30.964844 22.379829 30.964844 22.886719 L 30.964844 23.724609 C 29.33145 24.144039 28.15625 25.59274 28.15625 27.333984 C 28.15625 28.552864 28.738184 29.637622 29.646484 30.320312 C 29.743174 30.434583 29.802734 30.579084 29.802734 30.740234 C 29.802734 30.787114 29.802775 30.833003 29.796875 30.876953 L 25.759766 39.433594 L 24.089844 39.433594 C 23.817354 39.433594 23.59375 39.653291 23.59375 39.925781 L 23.59375 39.927734 C 23.59375 40.200224 23.817354 40.419922 24.089844 40.419922 L 25.294922 40.419922 L 22.177734 47.027344 C 21.981424 47.446334 22.079069 47.930631 22.386719 48.244141 L 21.185547 50.683594 L 23.083984 48.626953 C 23.587944 48.758803 24.126929 48.518606 24.355469 48.035156 L 27.949219 40.419922 L 31.107422 40.419922 L 31.107422 41.074219 C 31.107422 41.490279 31.446244 41.826172 31.865234 41.826172 L 31.90625 41.826172 C 32.32524 41.826172 32.666016 41.490279 32.666016 41.074219 L 32.666016 40.419922 L 35.896484 40.419922 L 39.488281 48.035156 C 39.713891 48.521536 40.256782 48.758803 40.757812 48.626953 L 42.65625 50.683594 L 41.458984 48.244141 C 41.763704 47.930631 41.862326 47.449264 41.666016 47.027344 L 38.548828 40.419922 L 39.679688 40.419922 C 39.955107 40.419922 40.175781 40.200224 40.175781 39.927734 C 40.175781 39.655244 39.955107 39.436494 39.679688 39.433594 L 38.083984 39.433594 L 34.048828 30.876953 C 34.042928 30.833003 34.042969 30.787114 34.042969 30.740234 C 34.042969 30.582014 34.101552 30.434583 34.195312 30.320312 C 35.103612 29.637622 35.689453 28.552864 35.689453 27.333984 C 35.689453 25.568913 34.458988 24.102344 32.806641 23.705078 L 32.806641 22.886719 C 32.806641 22.379829 32.396539 21.970703 31.886719 21.970703 z M 32.763672 25.349609 C 33.540847 25.676084 34.085938 26.441146 34.085938 27.333984 C 34.085938 28.523564 33.119268 29.488281 31.923828 29.488281 C 30.722528 29.488281 29.761719 28.523564 29.761719 27.333984 C 29.761719 26.470065 30.275284 25.729666 31.015625 25.386719 C 31.125395 25.768705 31.465189 26.054688 31.886719 26.054688 C 32.319155 26.054687 32.666012 25.751416 32.763672 25.349609 z M 31.90625 32.503906 L 31.923828 32.503906 L 31.941406 32.503906 C 32.058606 32.503906 32.162102 32.558585 32.226562 32.640625 L 35.431641 39.433594 L 32.666016 39.433594 L 32.666016 38.638672 C 32.666016 38.219682 32.32524 37.882812 31.90625 37.882812 L 31.865234 37.882812 C 31.446244 37.882813 31.107422 38.222612 31.107422 38.638672 L 31.107422 39.433594 L 28.414062 39.433594 L 31.619141 32.640625 C 31.686531 32.555655 31.78905 32.503906 31.90625 32.503906 z " class="ColorScheme-Text"/>
</svg>

<svg xmlns="http://www.w3.org/2000/svg" xmlns:xlink="http://www.w3.org/1999/xlink" width="64" height="64"><defs><linearGradient id="a"><stop offset="0"/><stop offset="1" stop-opacity="0"/></linearGradient><linearGradient xlink:href="#a" id="b" x1="31" x2="31" y1="1005.4" y2="1003.4" gradientTransform="matrix(.92593 0 0 1 2.37 -988.4)" gradientUnits="userSpaceOnUse"/></defs><path fill="#d0a15c" d="M13 8c-1.108 0-2 .892-2 2H9c-.99 0-2 .892-2 2v6c0 1.108 1.01 2 2 2h46c.99 0 2-.892 2-2v-6c0-1.108-1.01-2-2-2H31c0-1.108-.892-2-2-2z"/><rect width="46" height="9" x="9" y="12" opacity=".06" rx="2" ry="2"/><rect width="44" height="7" x="10" y="13" fill="#fff" rx="1" ry="1"/><rect width="56" height="39" x="4" y="17" fill="#d0a15c" rx="2" ry="2"/><rect width="50" height="2" x="7" y="15" fill="url(#b)" opacity=".1" ry="0"/><rect width="56" height="38" x="4" y="17" fill="#f4be70" rx="2" ry="2"/><rect width="50" height="5" x="7" y="56" fill="url(#d)" opacity=".1" ry="0"/><path fill="#fff" d="M6 17c-1.108 0-2 .892-2 2v1c0-1.108.892-2 2-2h52c1.108 0 2 .892 2 2v-1c0-1.108-.892-2-2-2zm7-9c-1.108 0-2 .892-2 2H9c-.99 0-2 .892-2 2v1c0-1.108 1.01-2 2-2h2c0-1.108.892-2 2-2h16c1.108 0 2 .892 2 2h24c.99 0 2 .892 2 2v-1c0-1.108-1.01-2-2-2H31c0-1.108-.892-2-2-2z" opacity=".15"/><path d="M31.887 21.97a.92.92 0 0 0-.922.917v.838a3.71 3.71 0 0 0-2.809 3.609c0 1.219.582 2.304 1.49 2.986a.65.65 0 0 1 .157.42q.002.07-.006.137l-4.037 8.557h-1.67a.495.495 0 0 0-.496.492v.002c0 .272.223.492.496.492h1.205l-3.117 6.607c-.197.42-.099.904.209 1.217l-1.201 2.44 1.898-2.057a1.1 1.1 0 0 0 1.271-.592l3.594-7.615h3.158v.654c0 .416.34.752.758.752h.041c.42 0 .76-.336.76-.752v-.654h3.23l3.592 7.615c.226.487.769.724 1.27.592l1.898 2.057-1.197-2.44c.305-.313.403-.795.207-1.217l-3.117-6.607h1.13a.493.493 0 1 0 0-.986h-1.595l-4.035-8.557q-.008-.066-.006-.137c0-.158.059-.305.152-.42a3.73 3.73 0 0 0 1.494-2.986c0-1.765-1.23-3.232-2.882-3.629v-.818a.916.916 0 0 0-.92-.916m.877 3.38a2.153 2.153 0 0 1-.84 4.138 2.154 2.154 0 0 1-2.162-2.154c0-.864.513-1.604 1.254-1.947.11.382.45.668.87.668.433 0 .78-.304.878-.705m-.858 7.154h.035c.118 0 .221.055.286.137l3.205 6.793h-2.766v-.795a.757.757 0 0 0-.76-.756h-.04a.757.757 0 0 0-.759.756v.795h-2.693l3.205-6.793a.36.36 0 0 1 .287-.137" class="ColorScheme-Text" style="fill:#fff"/></svg>
